public/svg/arrow-l-color.svg

<?xml version="1.0" encoding="UTF-8"?>
<svg width="14px" height="25px" viewBox="0 0 14 25" version="1.1" xmlns="http://www.w3.org/2000/svg" xmlns:xlink="http://www.w3.org/1999/xlink">
    <title>arrow-left</title>
    <defs>
        <linearGradient x1="49.8844746%" y1="99.5815405%" x2="50.280607%" y2="-0.0200476737%" id="linearGradient-1">
            <stop stop-color="#5870E0" offset="0%"></stop>
            <stop stop-color="#4DBBED" offset="100%"></stop>
        </linearGradient>
    </defs>
    <g id="Page-1" stroke="none" stroke-width="1" fill="none" fill-rule="evenodd">
        <g id="workers-desktop" transform="translate(-532.000000, -1814.000000)" fill="url(#linearGradient-1)" fill-rule="nonzero">
            <g id="arrow-left" transform="translate(532.000000, 1814.353279)">
                <path d="M0,11.6467213 C0,11.2164424 0.168412883,10.7861635 0.50523865,10.4568143 L11.0609236,0.140745216 C11.7345751,-0.517953323 12.8211098,-0.517953323 13.4947614,0.140745216 C14.1684129,0.799443755 14.1684129,1.86186075 13.4947614,2.51524721 L4.15056267,11.6467213 L13.4893287,20.7781954 C14.1629802,21.436894 14.1629802,22.499311 13.4893287,23.1526974 C12.8156771,23.8113959 11.7291424,23.8113959 11.0554909,23.1526974 L0.50523865,12.8366283 C0.168412883,12.5072791 0,12.0770002 0,11.6467213 Z" id="Path"></path>
            </g>
        </g>
    </g>
</svg>

<svg height="25" viewBox="0 0 14 25" width="14" xmlns="http://www.w3.org/2000/svg" xmlns:xlink="http://www.w3.org/1999/xlink"><linearGradient id="a" x1="49.884475%" x2="50.280607%" y1="99.581541%" y2="-.020048%"><stop offset="0" stop-color="#5870e0"/><stop offset="1" stop-color="#4dbbed"/></linearGradient><path d="m0 11.6467213c0-.4302789.16841288-.8605578.50523865-1.189907l10.55568495-10.31606908c.6736515-.65869854 1.7601862-.65869854 2.4338378 0 .6736515.65869854.6736515 1.72111553 0 2.37450199l-9.34419873 9.13147409 9.33876603 9.1314741c.6736515.6586986.6736515 1.7211156 0 2.374502-.6736516.6586985-1.7601863.6586985-2.4338378 0l-10.55025225-10.3160691c-.33682577-.3293492-.50523865-.7596281-.50523865-1.189907z" fill="url(#a)" transform="translate(0 .353279)"/></svg>
